svgs/light/comment-check.svg

<svg xmlns="http://www.w3.org/2000/svg" viewBox="0 0 512 512"><!--! Font Awesome Pro 6.3.0 by @fontawesome - https://fontawesome.com License - https://fontawesome.com/license (Commercial License) Copyright 2023 Fonticons, Inc. --><path d="M256 31.1c-141.4 0-255.1 93.13-255.1 208c0 47.62 19.91 91.25 52.91 126.3c-14.87 39.5-45.87 72.88-46.37 73.25c-6.623 7-8.372 17.25-4.624 26C5.817 474.3 14.38 480 24 480c61.49 0 109.1-25.75 139.1-46.25c28.1 9 60.16 14.25 92.9 14.25c141.4 0 255.1-93.13 255.1-207.1S397.4 31.1 256 31.1zM256 416c-28.25 0-56.24-4.25-83.24-12.75c-9.518-3.068-19.92-1.461-28.07 4.338c-22.1 16.25-58.54 35.29-102.7 39.66c12-15.12 29.75-40.5 40.75-69.63l.1289-.3398c4.283-11.27 1.789-23.1-6.43-32.82C47.51 313.1 32.06 277.6 32.06 240c0-97 100.5-176 223.1-176s223.1 79 223.1 176S379.5 416 256 416zM324.7 175.3L229.3 270.7L187.3 228.7c-6.25-6.25-16.38-6.25-22.62 0s-6.25 16.38 0 22.62l53.33 53.34c3 3 7.062 4.688 11.31 4.688s8.312-1.688 11.31-4.688l106.7-106.7c6.25-6.25 6.25-16.38 0-22.62S330.9 169.1 324.7 175.3z"/></svg>

<svg xmlns="http://www.w3.org/2000/svg" viewBox="0 0 512 512"><!-- Font Awesome Pro 6.0.0-alpha2 by @fontawesome - https://fontawesome.com License - https://fontawesome.com/license (Commercial License) --><path d="M256.034 32C114.678 32 0.067 125.125 0.067 240C0.067 287.625 19.94 331.25 52.936 366.25C38.063 405.75 7.067 439.125 6.567 439.5C-0.056 446.5 -1.806 456.75 1.942 465.5C5.817 474.25 14.315 480 23.94 480C85.432 480 133.924 454.25 163.045 433.75C192.041 442.75 223.287 448 256.034 448C397.389 448 512 354.875 512 240S397.389 32 256.034 32ZM256.034 416C227.787 416 199.791 411.75 172.795 403.25C163.278 400.182 152.871 401.789 144.725 407.588L144.674 407.625C121.676 423.875 86.182 442.875 42.061 447.25C54.061 432.125 71.809 406.75 82.807 377.625L82.936 377.285C87.219 366.014 84.725 353.287 76.506 344.463L76.307 344.25C47.311 313.75 32.063 277.625 32.063 240C32.063 143 132.549 64 256.034 64S480.004 143 480.004 240S379.518 416 256.034 416ZM324.688 175.344L229.329 270.719L187.313 228.688C181.063 222.438 170.938 222.438 164.688 228.688S158.438 245.063 164.688 251.312L218.016 304.656C221.016 307.656 225.079 309.344 229.329 309.344S237.641 307.656 240.641 304.656L347.313 197.969C353.563 191.719 353.563 181.594 347.313 175.344S330.938 169.094 324.688 175.344Z"/></svg>
